src/assets/icon-hide-preview.svg

<svg viewBox="0 0 16 15" fill="none" xmlns="http://www.w3.org/2000/svg">
  <path
    d="M1.38048 0.0271502C1.65463 -0.0463087 1.94725 0.0316802 2.14806 0.232228L14.815 12.8992C14.9649 13.0479 15.0494 13.2506 15.0494 13.4617C15.0493 13.6726 14.9648 13.8747 14.815 14.0232C14.6664 14.1731 14.4636 14.2576 14.2525 14.2576C14.0416 14.2575 13.8396 14.173 13.691 14.0232L9.23399 9.56621C8.15685 10.1452 6.82723 9.94949 5.96251 9.08477C5.09805 8.22013 4.90232 6.89125 5.48106 5.81426L1.02403 1.35723C0.823219 1.15642 0.744475 0.862989 0.817977 0.588674C0.891519 0.314483 1.10627 0.100662 1.38048 0.0271502ZM3.5338 4.97442C2.85252 5.61281 2.25629 6.3367 1.76036 7.12774C2.457 8.24394 4.68943 11.1656 8.09337 11.0867C8.54793 11.0709 9.00017 11.0042 9.44005 10.8885L10.69 12.1395C9.87536 12.4642 9.01006 12.6437 8.13341 12.6697H7.93516C3.27301 12.6696 0.605294 8.38788 0.106063 7.52422C-0.0353544 7.27928 -0.0353544 6.97717 0.106063 6.73223C0.719113 5.66864 1.48407 4.70008 2.37755 3.8582L3.5338 4.97442ZM7.70567 1.58672C12.4317 1.44423 15.2261 5.85313 15.733 6.73223C15.8844 6.97147 15.897 7.27365 15.7652 7.52422C15.1426 8.58979 14.3661 9.55767 13.4615 10.3973L12.2662 9.28106C12.9613 8.64516 13.5706 7.92108 14.0787 7.12774C13.374 6.01132 11.1415 3.08282 7.74571 3.16973C7.29125 3.18554 6.83979 3.2523 6.40001 3.36797L5.14903 2.11699C5.96374 1.79218 6.82899 1.61275 7.70567 1.58672ZM6.73204 7.12774C6.73204 7.78356 7.26373 8.31521 7.91954 8.31524L7.96739 8.30742L6.73204 7.07305V7.12774Z"
    fill="#C1C4CB"
  />
</svg>

<svg xmlns="http://www.w3.org/2000/svg">
  <path
    d="M1.38.027a.795.795 0 0 1 .769.206L14.815 12.9a.792.792 0 0 1 0 1.124.792.792 0 0 1-1.124 0L9.234 9.567a2.77 2.77 0 0 1-3.753-3.753L1.024 1.357a.795.795 0 0 1 .357-1.33Zm.998 3.832 1.156 1.116a10.846 10.846 0 0 0-1.773 2.153c.696 1.117 2.929 4.038 6.333 3.959a6.127 6.127 0 0 0 1.346-.198l1.25 1.25a7.505 7.505 0 0 1-2.556.53h-.198c-4.663 0-7.331-4.282-7.83-5.145a.792.792 0 0 1 0-.792A12.58 12.58 0 0 1 2.378 3.86Zm5.328-2.272c4.726-.143 7.52 4.267 8.028 5.145.15.24.163.542.031.792a12.58 12.58 0 0 1-2.304 2.874l-1.195-1.116a10.846 10.846 0 0 0 1.813-2.154c-.705-1.116-2.937-4.045-6.333-3.958a6.127 6.127 0 0 0-1.346.198L5.149 2.117a7.505 7.505 0 0 1 2.557-.53Zm-.974 5.486v.055c0 .656.532 1.188 1.188 1.188l.047-.008-1.235-1.235Z"
    fill="#7C8187"
  />
</svg>
